client/src/assets/generatedImages/sprite/UNBLOCK_ICON.svg

<svg viewBox="0 0 24 24"><path d="M20.2949 0.298996L21.7089 1.713L19.4169 4.006L21.7089 6.299L20.2949 7.713L18.0019 5.42L15.7099 7.713L14.2949 6.299L16.5879 4.006L14.2949 1.713L15.7099 0.298996L18.0019 2.592L20.2949 0.298996ZM8.00195 13.006C10.207 13.006 12.002 11.211 12.002 9.006C12.002 6.801 10.207 5.006 8.00195 5.006C5.79695 5.006 4.00195 6.801 4.00195 9.006C4.00195 11.211 5.79695 13.006 8.00195 13.006ZM8.00195 14.006C3.29095 14.006 0.00195312 16.473 0.00195312 20.006V21.006H16.002V20.006C16.002 16.473 12.713 14.006 8.00195 14.006Z"/></svg>

<svg viewBox="0 0 24 24"><path d="m20.3.3 1.4 1.4L19.4 4l2.3 2.3-1.4 1.4L18 5.4l-2.3 2.3-1.4-1.4L16.6 4l-2.3-2.3L15.7.3 18 2.6 20.3.3ZM8 13a4 4 0 1 0 0-8 4 4 0 0 0 0 8Zm0 1c-4.7 0-8 2.5-8 6v1h16v-1c0-3.5-3.3-6-8-6Z"/></svg>
